X: 31002
T: Pachelbel's Frolics
R: reel
M: 4/4
K: Dmajor
(3ABc|:d2 dc defg|a3b agfe|B3A BcdB|ABGA FDEF|
G3A BABc|dcde fefa|gfed cdef|gece d4:|
fdAd fdAd|ecAc ecAc|dBFB dBFB|AGAB =cAFA|
G3A BABc|dcde fefa|gfed cdef|gece d4:|
fa a2 fa a2|ea a2 ea a2|df f2 df f2|AGAB =cAFA|
G2 GF GAB^c|dcde fefa|gfed cdef|1 gece d4:|2 gece d2 (3ABc||

